vessel_track/img/routes-ico.svg

<svg width="30" height="30" viewBox="0 0 30 30" fill="none" xmlns="http://www.w3.org/2000/svg">
<path d="M13 19.1C13 22.7451 7 28.5 7 28.5C7 28.5 1 22.7451 1 19.1C1 15.4549 3.68629 12.5 7 12.5C10.3137 12.5 13 15.4549 13 19.1Z" stroke="white" stroke-width="1.5" stroke-linecap="round" stroke-linejoin="round"/>
<path d="M10 18.9C10 20.6673 8.65685 22.1 7 22.1C5.34315 22.1 4 20.6673 4 18.9C4 17.1327 5.34315 15.7 7 15.7C8.65685 15.7 10 17.1327 10 18.9Z" stroke="white" stroke-width="1.5" stroke-linecap="round" stroke-linejoin="round"/>
<path d="M29 6.8625C29 9.82413 24.5 14.5 24.5 14.5C24.5 14.5 20 9.82413 20 6.8625C20 3.90087 22.0147 1.5 24.5 1.5C26.9853 1.5 29 3.90087 29 6.8625Z" stroke="white" stroke-width="1.5" stroke-linecap="round" stroke-linejoin="round"/>
<path d="M26.75 6.7C26.75 8.13594 25.7426 9.3 24.5 9.3C23.2574 9.3 22.25 8.13594 22.25 6.7C22.25 5.26406 23.2574 4.1 24.5 4.1C25.7426 4.1 26.75 5.26406 26.75 6.7Z" stroke="white" stroke-width="1.5" stroke-linecap="round" stroke-linejoin="round"/>
<path d="M7 28.5H25C27.2091 28.5 29 26.7091 29 24.5V24.5C29 22.2909 27.2091 20.5 25 20.5H21.1429" stroke="white" stroke-width="1.5"/>
<path d="M24.5 14.5H20C18.3431 14.5 17 15.8431 17 17.5V17.5C17 19.1569 18.3431 20.5 20 20.5H24" stroke="white" stroke-width="1.5"/>
</svg>

<svg width="30" height="30" fill="none" xmlns="http://www.w3.org/2000/svg"><path d="M13 19.1c0 3.645-6 9.4-6 9.4s-6-5.755-6-9.4c0-3.645 2.686-6.6 6-6.6s6 2.955 6 6.6z" stroke="#fff" stroke-width="1.5" stroke-linecap="round" stroke-linejoin="round"/><path d="M10 18.9c0 1.767-1.343 3.2-3 3.2s-3-1.433-3-3.2c0-1.767 1.343-3.2 3-3.2s3 1.433 3 3.2zM29 6.862c0 2.962-4.5 7.638-4.5 7.638S20 9.824 20 6.862C20 3.901 22.015 1.5 24.5 1.5S29 3.9 29 6.862z" stroke="#fff" stroke-width="1.5" stroke-linecap="round" stroke-linejoin="round"/><path d="M26.75 6.7c0 1.436-1.007 2.6-2.25 2.6s-2.25-1.164-2.25-2.6c0-1.436 1.007-2.6 2.25-2.6s2.25 1.164 2.25 2.6z" stroke="#fff" stroke-width="1.5" stroke-linecap="round" stroke-linejoin="round"/><path d="M7 28.5h18a4 4 0 004-4v0a4 4 0 00-4-4h-3.857m3.357-6H20a3 3 0 00-3 3v0a3 3 0 003 3h4" stroke="#fff" stroke-width="1.5"/></svg>
